X:310
T:Haste to the Wedding
R:Country Dance
B:The Athole Collection
M:6/8
L:1/8
K:D
B|AFA Aaf|ede fdB|AFA AdF|EFE E2A|AFA Aaf|ede fdB|AFA faf|ddd d2:|
|:f/g/|faf faf|bgb bgb|afa agf|efe e2f/g/|a3 f3|ede fdB|AFA faf|ded d2:|

